src/assets/support24-7-minimalistic.svg

<svg width="303" height="347" viewBox="0 0 303 347" fill="none" xmlns="http://www.w3.org/2000/svg">
<path d="M276.469 123.328C275.806 84.8594 263.977 54.46 241.427 33.0146C203.842 -2.4698 150.671 -0.0378462 148.902 0.0726971C110.764 0.18324 80.5861 11.5692 59.0301 34.0095C28.5202 65.9565 25.425 110.063 25.3144 123.66C10.2805 133.388 0 151.185 0 171.636C0 193.302 11.386 211.874 27.9674 221.159C27.3042 239.841 31.5048 280.963 75.0589 309.041C74.1745 314.237 74.7273 319.543 77.2698 324.186C80.365 329.713 85.3394 333.803 91.4193 335.572L125.246 345.52C127.456 346.184 129.778 346.515 131.989 346.515C135.858 346.515 139.727 345.52 143.264 343.641C148.791 340.657 152.881 335.572 154.65 329.492L155.313 327.281C157.082 321.201 156.419 314.789 153.434 309.152C150.339 303.625 145.364 299.534 139.285 297.766L136.632 296.992C141.495 297.655 146.359 298.208 151.334 298.208C197.209 298.208 236.231 268.803 250.823 227.792C251.154 227.792 251.375 227.902 251.597 227.902C279.896 227.902 302.999 202.809 302.999 171.857C303.11 150.964 292.276 132.835 276.469 123.328ZM17.908 171.746C17.908 153.065 29.8467 137.367 45.4333 134.272V192.75C45.4333 197.945 45.8755 203.141 46.6493 208.226C46.7598 208.668 46.6493 209.11 46.7598 209.552C30.5099 206.899 17.908 190.981 17.908 171.746ZM87.4397 289.807C85.8921 290.691 84.6762 292.017 83.3496 293.233C51.4026 272.009 45.8755 243.157 45.6544 227.018C47.5336 227.239 49.4128 227.681 51.4026 227.681C51.5132 227.681 51.7343 227.681 51.8448 227.681C61.5726 255.207 82.1337 276.984 108.001 288.701L105.569 288.038C99.3784 286.159 92.9669 286.822 87.4397 289.807ZM137.737 317.885C138.511 319.211 138.621 320.869 138.179 322.306L137.516 324.517C137.074 326.065 136.079 327.281 134.642 328.055C133.315 328.828 131.657 328.939 130.22 328.497L96.3938 318.548C94.8461 318.106 93.6302 317.111 92.9669 315.784C92.1931 314.347 92.0826 312.8 92.5247 311.363L93.188 309.152C93.6302 307.604 94.6251 306.388 96.0621 305.614C96.9465 305.172 97.8308 304.951 98.8257 304.951C99.3784 304.951 99.9311 305.062 100.484 305.172L134.31 315.121C135.747 315.563 136.963 316.558 137.737 317.885ZM239.216 192.639C239.216 241.057 199.752 280.521 151.334 280.521C111.759 280.521 76.8276 253.991 66.4365 215.964C64.3362 208.226 63.3413 200.377 63.3413 192.639V165.445L63.7835 166.883C114.081 151.075 136.963 123.66 148.349 103.32L149.565 105.199C162.609 125.208 181.954 155.054 239.216 161.908V192.639ZM239.216 143.558C192.235 137.257 176.759 114.264 164.599 95.361L163.383 93.4818C159.735 87.8441 153.655 84.7489 147.023 85.0805C140.279 85.4121 134.531 89.2811 131.436 95.2505C123.035 111.721 104.132 133.83 63.4518 147.98V132.946C63.4518 130.624 63.5624 128.192 63.7835 125.65C67.542 80.5482 106.011 45.0638 151.444 45.0638C174.879 45.0638 196.988 54.2389 213.57 70.7098C230.151 87.4019 239.216 109.511 239.216 132.946V143.558ZM226.172 57.9974C206.053 38.0996 179.522 27.1558 151.334 27.1558C99.5995 27.1558 55.7138 65.5143 47.3125 116.143C46.0965 116.254 44.77 116.364 43.5541 116.585C44.8806 100.446 50.1867 69.1623 72.0742 46.2798C90.0928 27.4874 115.96 17.9807 149.344 17.8702C149.786 17.8702 196.988 15.6593 229.046 45.9482C246.733 62.6402 256.018 86.6281 257.898 116.696C257.124 116.585 256.46 116.475 255.687 116.475C252.37 94.5872 242.2 74.1367 226.172 57.9974ZM256.35 209.773C257.234 204.136 257.676 198.498 257.676 192.971V134.604C273.374 137.81 285.202 153.396 285.202 172.078C285.202 191.313 272.6 207.231 256.35 209.773Z" fill="url(#paint0_linear_1064_2020)"/>
<defs>
<linearGradient id="paint0_linear_1064_2020" x1="151.5" y1="0" x2="151.5" y2="346.515" gradientUnits="userSpaceOnUse">
<stop stop-color="#024EC9"/>
<stop offset="1" stop-color="#024EC9"/>
</linearGradient>
</defs>
</svg>

<svg width="303" height="347" fill="none" xmlns="http://www.w3.org/2000/svg"><path d="M276.469 123.328c-.663-38.469-12.492-68.868-35.042-90.313C203.842-2.47 150.671-.038 148.902.073 110.764.183 80.586 11.569 59.03 34.01c-30.51 31.947-33.605 76.053-33.716 89.65C10.28 133.388 0 151.185 0 171.636c0 21.666 11.386 40.238 27.967 49.523-.663 18.682 3.538 59.804 47.092 87.882-.885 5.196-.332 10.502 2.21 15.145 3.096 5.527 8.07 9.617 14.15 11.386l33.827 9.948a23.69 23.69 0 006.743.995c3.869 0 7.738-.995 11.275-2.874 5.527-2.984 9.617-8.069 11.386-14.149l.663-2.211c1.769-6.08 1.106-12.492-1.879-18.129-3.095-5.527-8.07-9.618-14.149-11.386l-2.653-.774c4.863.663 9.727 1.216 14.702 1.216 45.875 0 84.897-29.405 99.489-70.416.331 0 .552.11.774.11 28.299 0 51.402-25.093 51.402-56.045.111-20.893-10.723-39.022-26.53-48.529zM17.908 171.746c0-18.681 11.939-34.379 27.525-37.474v58.478c0 5.195.443 10.391 1.216 15.476.11.442 0 .884.11 1.326-16.25-2.653-28.851-18.571-28.851-37.806zM87.44 289.807c-1.548.884-2.764 2.21-4.09 3.426-31.947-21.224-37.474-50.076-37.696-66.215 1.88.221 3.759.663 5.749.663h.442c9.728 27.526 30.289 49.303 56.156 61.02l-2.432-.663c-6.19-1.879-12.602-1.216-18.13 1.769zm50.297 28.078c.774 1.326.884 2.984.442 4.421l-.663 2.211c-.442 1.548-1.437 2.764-2.874 3.538-1.327.773-2.985.884-4.422.442l-33.826-9.949c-1.548-.442-2.764-1.437-3.427-2.764a5.664 5.664 0 01-.442-4.421l.663-2.211c.442-1.548 1.437-2.764 2.874-3.538a5.995 5.995 0 012.764-.663c.552 0 1.105.111 1.658.221l33.826 9.949c1.437.442 2.653 1.437 3.427 2.764zm101.479-125.246c0 48.418-39.464 87.882-87.882 87.882-39.575 0-74.506-26.53-84.898-64.557a89.02 89.02 0 01-3.095-23.325v-27.194l.442 1.438c50.298-15.808 73.18-43.223 84.566-63.563l1.216 1.879c13.044 20.009 32.389 49.855 89.651 56.709v30.731zm0-49.081c-46.981-6.301-62.457-29.294-74.617-48.197l-1.216-1.88c-3.648-5.637-9.728-8.732-16.36-8.4-6.744.331-12.492 4.2-15.587 10.17-8.401 16.47-27.304 38.579-67.984 52.729v-15.034c0-2.322.11-4.754.331-7.296 3.759-45.102 42.228-80.586 87.661-80.586 23.435 0 45.544 9.175 62.126 25.646 16.581 16.692 25.646 38.801 25.646 62.236v10.612zm-13.044-85.56c-20.119-19.898-46.65-30.842-74.838-30.842-51.734 0-95.62 38.358-104.022 88.987-1.215.111-2.542.221-3.758.442 1.327-16.139 6.633-47.423 28.52-70.305 18.019-18.793 43.886-28.3 77.27-28.41.442 0 47.644-2.21 79.702 28.078 17.687 16.692 26.972 40.68 28.852 70.748-.774-.111-1.438-.221-2.211-.221-3.317-21.888-13.487-42.338-29.515-58.478zm30.178 151.775a108.67 108.67 0 001.326-16.802v-58.367c15.698 3.206 27.526 18.792 27.526 37.474 0 19.235-12.602 35.153-28.852 37.695z" fill="url(#paint0_linear_1064_2020)"/><defs><linearGradient id="paint0_linear_1064_2020" x1="151.5" y1="0" x2="151.5" y2="346.515" gradientUnits="userSpaceOnUse"><stop stop-color="#024EC9"/><stop offset="1" stop-color="#024EC9"/></linearGradient></defs></svg>
